!!!COM: Fux, Johann Joseph
!!!OMD: Gradus ad Parnassum Exercise
!!!YEC: CC0 1.0 Universal (Public Domain). Mark Gotham and FourScoreAndMore.org waive all rights to this document.
**kern	**kern	**kern	**kern
*part4	*part3	*part2	*part1
*staff4	*staff3	*staff2	*staff1
*I"4	*I"3	*I"2	*I"1
*I'Pno	*I'Pno	*I'Pno	*I'Pno
!!LO:PB:g=z
*clefF4	*clefGv2	*clefG2	*clefG2
*k[]	*k[]	*k[]	*k[]
!!LO:TX:omd:t=
*M4/4	*M4/4	*M4/4	*M4/4
=241	=241	=241	=241
!	!	!	!LO:TX:a:t=Fig. 186; Species&colon; 3; Modal final&colon; e; Cantus firmus&colon; 3
4e\	1e	1g#X	1b
4d\	.	.	.
4c\	.	.	.
4B\	.	.	.
=242	=242	=242	=242
4A\	1c	1a	1ee
4G\	.	.	.
4F\	.	.	.
4E\	.	.	.
=243	=243	=243	=243
4D\	1d	1a	1ff
4E\	.	.	.
4F\	.	.	.
4D\	.	.	.
=244	=244	=244	=244
4A\	1c	1cc	1ee
4c\	.	.	.
4A\	.	.	.
4G\	.	.	.
=245	=245	=245	=245
4F\	1A	1cc	1ff
4G\	.	.	.
4A\	.	.	.
4G\	.	.	.
!!LO:LB:g=z
=246	=246	=246	=246
4F\	1a	1cc	1ff
4G\	.	.	.
4A\	.	.	.
4B\	.	.	.
=247	=247	=247	=247
4c\	1g	1cc	1ee
4E\	.	.	.
4F\	.	.	.
4G\	.	.	.
=248	=248	=248	=248
4A\	1e	1cc	1ee
4G\	.	.	.
4F\	.	.	.
4E\	.	.	.
=249	=249	=249	=249
4D\	1f	1dd	1a
4F\	.	.	.
4E\	.	.	.
4D\	.	.	.
=250	=250	=250	=250
1E	1e	1b	1g#X
==	==	==	==
*-	*-	*-	*-
!!!software: music21 v.9.7.1
!!!software: music21 v.9.7.1
!!!software: MuseScore 3.4.2
!!!RDF**kern: > = above
!!!RDF**kern: < = below
